X:559
T:Victoria Hornpipe
B:Skye Collection
Z:Nigel Gatherer
L:1/8
M:4/4
K:A
e2  | a2 e2 dcBA   | a2 e2 dcBA  | dcBA =G2 AB | =g2 d2 d2 
e^g | a2 e2 dcBA   | a2 e2 dcBA  | dcBA ^GBed  |  c2 A2 A2 :|
cB  | ABcd  e2 e=g | f2 df e2 ce | dcBA =G2 AB | =g2 d2 d2 
cB  | ABcd  e2 e=g | f2 df e2 ce | dcBA ^GBed  |  c2 A2 A2 :|]
<end>
<start>
